X: 1
T: An Dro
M: 4/4
L: 1/8
K: G
d| cB A2 A2 G2| cB A2 AG/2F/2 EF| GE A2 A2 GG|
|cB AA G2 AG| EE A2 A2 G2| cB A2 AG/2F/2 EF|
GE A2 A2 GG| cB AA G2 AE| AG AB cc Bc|
dc BA c2BE|AG AB cc Bc| dc BA c2B2|
